src/icons/crystal.svg

<svg
  xml:space="preserve"
  xmlns="http://www.w3.org/2000/svg"
  viewBox="0 0 200 200"
>
  <path
    d="m179.363 121.67-57.623 57.507c-.23.23-.576.346-.806.23l-78.713-21.09c-.346-.115-.577-.345-.577-.576L20.44 79.144c-.115-.345 0-.576.23-.806L78.294 20.83c.23-.23.576-.346.807-.23l78.713 21.09c.345.114.576.345.576.575l21.09 78.597c.23.346.115.577-.115.807zm-77.215-62.58-77.33 20.63c-.115 0-.23.23-.115.345l56.586 56.47c.115.115.346.115.346-.115l20.744-77.215c.115 0-.115-.23-.23-.116z"
    fill="#cfd8dc"
  />
</svg>

<svg viewBox="0 0 200 200" xmlns="http://www.w3.org/2000/svg">
  <path
    d="M179.363 121.67L121.74 179.177C121.51 179.407 121.164 179.523 120.934 179.407L42.221 158.317C41.875 158.202 41.644 157.972 41.644 157.741L20.44 79.144C20.325 78.799 20.44 78.568 20.67 78.338L78.294 20.83C78.524 20.6 78.87 20.484 79.101 20.6L157.814 41.69C158.159 41.804 158.39 42.035 158.39 42.265L179.48 120.862C179.71 121.208 179.595 121.439 179.365 121.669L179.363 121.67ZM102.148 59.09L24.818 79.72C24.703 79.72 24.588 79.95 24.703 80.065L81.289 136.535C81.404 136.65 81.635 136.65 81.635 136.42L102.379 59.205C102.494 59.205 102.264 58.975 102.149 59.089L102.148 59.09Z"
    fill="#CFD8DC"
  />
</svg>
